src/status/24/notification-new-70-symbolic.svg

<?xml version="1.0" encoding="UTF-8" standalone="no"?>
<svg
   xmlns:dc="http://purl.org/dc/elements/1.1/"
   xmlns:cc="http://creativecommons.org/ns#"
   xmlns:rdf="http://www.w3.org/1999/02/22-rdf-syntax-ns#"
   xmlns:svg="http://www.w3.org/2000/svg"
   xmlns="http://www.w3.org/2000/svg"
   height="24"
   width="24"
   version="1.1"
   id="svg8">
  <metadata
     id="metadata14">
    <rdf:RDF>
      <cc:Work
         rdf:about="">
        <dc:format>image/svg+xml</dc:format>
        <dc:type
           rdf:resource="http://purl.org/dc/dcmitype/StillImage" />
        <dc:title />
      </cc:Work>
    </rdf:RDF>
  </metadata>
  <defs
     id="defs12" />
  <path
     id="path2-3-5-2-2-5-19-5"
     d="M 13.990234 5.0097656 C 13.600547 5.0126677 13.230786 5.2442701 13.072266 5.6269531 L 13.068359 5.6347656 C 11.264109 5.3809999 9.4686312 6.491285 8.7695312 8.1738281 C 8.7695312 8.1738281 6.8572275 12.793948 5.0859375 12.732422 C 5.0669375 12.736422 5.05155 12.751279 5.03125 12.755859 C 4.95415 12.777379 4.8823863 12.812071 4.8164062 12.857422 C 4.7894062 12.875482 4.7619812 12.88574 4.7382812 12.90625 C 4.6484812 12.9805 4.57761 13.076631 4.53125 13.183594 C 4.37206 13.567928 4.5541 14.003296 4.9375 14.162109 L 14.636719 18.181641 C 15.021059 18.340838 15.457987 18.159728 15.617188 17.775391 C 15.659987 17.363636936 15.677016 17.549628 15.363636016 17.433594 C 15.664016 17.402364 15.652284 17.37427 15.646484 17.34375 C 15.631684 17.26484 15.604153 17.188943 15.564453 17.119141 C 15.554253 17.101931 15.554469 17.081113 15.542969 17.064453 C 14.246589 15.856393 16.162109 11.236328 16.162109 11.236328 C 16.857889 9.5513308 16.372536 7.4961921 14.916016 6.4003906 L 14.919922 6.3925781 C 15.131272 5.8823335 14.889106 5.2972859 14.378906 5.0859375 C 14.251346 5.0331004 14.12013 5.0087983 13.990234 5.0097656 z M 6.8964844 16.060547 C 6.7832284 16.888384 7.1922929 17.730166 7.9824219 18.121094 C 8.8566329 18.552915 9.8918904 18.285446 10.458984 17.535156 L 6.8964844 16.060547 z "
     style="color:#bebebe;overflow:visible;isolation:auto;mix-blend-mode:normal;fill:#363636;marker:none" />
</svg>

<svg xmlns="http://www.w3.org/2000/svg" width="24" height="24">
    <path d="M13.99 5.01c-.39.003-.76.234-.918.617l-.004.008c-1.804-.254-3.6.856-4.298 2.539 0 0-1.913 4.62-3.684 4.558-.02.004-.034.02-.055.024a.72.72 0 0 0-.215.101c-.027.018-.054.029-.078.05a.744.744 0 0 0-.207.277c-.159.384.023.82.407.978l9.699 4.02a.748.748 0 0 0 .98-.407c.043-.411.06-.225-.253-.341.3-.032.288-.06.282-.09a.724.724 0 0 0-.082-.225c-.01-.017-.01-.038-.021-.055-1.296-1.208.62-5.828.62-5.828.695-1.685.21-3.74-1.247-4.836l.004-.007a1 1 0 0 0-.93-1.383zM6.896 16.06a1.991 1.991 0 0 0 3.563 1.475l-3.563-1.474z" style="color:#bebebe;overflow:visible;isolation:auto;mix-blend-mode:normal;fill:#050505;opacity:.7;marker:none"/>
</svg>
